icons/3_Generic/Chat.svg

<svg width="1024" height="1024" viewBox="0 0 1024 1024" fill="none" xmlns="http://www.w3.org/2000/svg">
<g clip-path="url(#clip0_3_461)">
<path d="M512 1024C794.77 1024 1024 794.77 1024 512C1024 229.23 794.77 0 512 0C229.23 0 0 229.23 0 512C0 794.77 229.23 1024 512 1024Z" fill="#8C72BD"/>
<path d="M751.191 651.911C796.471 562.161 760.431 452.701 670.681 407.421C650.978 397.478 629.63 391.203 607.681 388.901C569.481 295.921 463.141 251.501 370.161 289.691C277.181 327.891 232.761 434.231 270.951 527.211C272.721 531.511 274.651 535.741 276.741 539.901L258.381 604.231C254.141 619.101 262.761 634.601 277.631 638.841C282.648 640.271 287.964 640.271 292.981 638.841L357.311 620.481C376.982 630.364 398.278 636.608 420.171 638.911C458.331 731.981 564.711 776.491 657.781 738.331C662.131 736.551 666.411 734.601 670.601 732.481L734.941 750.841C749.811 755.081 765.311 746.461 769.551 731.591C770.981 726.574 770.981 721.258 769.551 716.241L751.191 651.911ZM358.861 591.471C357.561 591.471 356.261 591.641 355.011 592.011L285.281 611.941L305.181 542.241C306.201 538.701 305.781 534.901 304.011 531.671C263.351 456.961 290.961 363.431 365.671 322.771C440.381 282.111 533.911 309.721 574.571 384.431C615.231 459.141 587.621 552.671 512.911 593.331C466.971 618.331 411.491 618.311 365.571 593.271C363.514 592.126 361.205 591.508 358.851 591.471H358.861ZM722.721 654.221L742.651 723.951L672.951 704.051C669.411 703.031 665.611 703.451 662.381 705.221C587.701 745.931 494.151 718.391 453.441 643.711C452.691 642.331 451.951 640.931 451.241 639.531C551.451 633.011 627.401 546.491 620.881 446.281C620.273 436.963 618.949 427.706 616.921 418.591C700.541 434.161 755.711 514.571 740.141 598.191C737.181 614.099 731.731 629.441 723.991 643.651C722.191 646.871 721.741 650.671 722.731 654.221H722.721Z" fill="white"/>
</g>
<defs>
<clipPath id="clip0_3_461">
<rect width="1024" height="1024" fill="white"/>
</clipPath>
</defs>
</svg>

<svg xmlns="http://www.w3.org/2000/svg" viewBox="0 0 1024 1024">
   <circle cx="512" cy="512" r="512" style="fill:#6750a4"/>
   <path d="M751.19 651.91c45.28-89.75 9.24-199.21-80.51-244.49a181.962 181.962 0 0 0-63-18.52c-38.2-92.98-144.54-137.4-237.52-99.21-92.98 38.2-137.4 144.54-99.21 237.52 1.77 4.3 3.7 8.53 5.79 12.69l-18.36 64.33c-4.24 14.87 4.38 30.37 19.25 34.61a27.998 27.998 0 0 0 15.35 0l64.33-18.36a182.574 182.574 0 0 0 62.86 18.43c38.16 93.07 144.54 137.58 237.61 99.42 4.35-1.78 8.63-3.73 12.82-5.85l64.34 18.36c14.87 4.24 30.37-4.38 34.61-19.25a27.998 27.998 0 0 0 0-15.35l-18.36-64.33Zm-392.33-60.44c-1.3 0-2.6.17-3.85.54l-69.73 19.93 19.9-69.7c1.02-3.54.6-7.34-1.17-10.57-40.66-74.71-13.05-168.24 61.66-208.9s168.24-13.05 208.9 61.66 13.05 168.24-61.66 208.9c-45.94 25-101.42 24.98-147.34-.06a14.277 14.277 0 0 0-6.72-1.8Zm363.86 62.75 19.93 69.73-69.7-19.9c-3.54-1.02-7.34-.6-10.57 1.17-74.68 40.71-168.23 13.17-208.94-61.51-.75-1.38-1.49-2.78-2.2-4.18 100.21-6.52 176.16-93.04 169.64-193.25a182.14 182.14 0 0 0-3.96-27.69c83.62 15.57 138.79 95.98 123.22 179.6a153.872 153.872 0 0 1-16.15 45.46c-1.8 3.22-2.25 7.02-1.26 10.57Z" style="fill:#fff"/>
</svg>
